X:1
T: Snug in the Blanket
C:
R:Jig
Q:180
K:G
M:6/8
L:1/16
G2|:A4B2 c2B2c2|E2F2E2 c4A2|B4G2 A2F2D2|G2A2G2 B2A2G2|
A4B2 c2B2c2|E2F2E2 c4A2|B2d2B2 c2A2F2|G6 B2A2G2:|
|:F2G2A2 A2F2d2|A2F2d2 A2F2d2|F2G2A2 A2F2d2|E2F2G2 G2F2E2|
F2G2A2 A2F2d2|A2F2d2 A2B2c2|B2d2B2 c2A2F2|G6 B2A2G2:|
|:F2G2A2 A2F2D2|D2E2D2 A2F2D2|F2G2A2 A2F2D2|G2A2G2 B2A2G2|
F2G2A2 A2F2D2|D2E2D2 A2B2c2|B2d2B2 c2A2F2|1G6B2A2G2:|2G6G4||
